resources/svg/file-no-access-o.svg

<svg xmlns="http://www.w3.org/2000/svg" viewBox="0 0 15 15" fill="none"><path d="M9.5 5.5L5.5 9.5M10.5 0.5H2.5C1.94772 0.5 1.5 0.947716 1.5 1.5V13.5C1.5 14.0523 1.94772 14.5 2.5 14.5H12.5C13.0523 14.5 13.5 14.0523 13.5 13.5V3.5L10.5 0.5ZM7.5 10.5C5.84315 10.5 4.5 9.15685 4.5 7.5C4.5 5.84315 5.84315 4.5 7.5 4.5C9.15685 4.5 10.5 5.84315 10.5 7.5C10.5 9.15685 9.15685 10.5 7.5 10.5Z" stroke="black"/></svg>

<svg xmlns="http://www.w3.org/2000/svg" viewBox="0 0 15 15" fill="none"><path d="M9.5 5.5l-4 4m5-9h-8a1 1 0 00-1 1v12a1 1 0 001 1h10a1 1 0 001-1v-10l-3-3zm-3 10a3 3 0 110-6 3 3 0 010 6z" stroke="currentColor"/></svg>
